X: 25960
T: Max Collett's
R: polka
M: 2/4
K: Gmajor
DE|FF/F/ FF/F/|FF/F/ ED|BB/B/ BB/B/|BG DE|
FF/F/ FF/F/|FF/F/ ED|dd/d/ dd/d/|dg ed|
cc/c/ cc/c/|cA FA|BB/B/ BB/B/|Bd cB|
AB F/G/A|BG E/F/G|AA/A/ EF|G2 G2||
|:dc BB/B/|GB dg|ed cc/c/|EG ce|
dc BB/B/|BG E/F/G|AA/A/ EF|1 G2 G2:|2 G2 DE||

